bernoullicharts/2014_lin_x_2_0_bits.svg

<?xml version="1.0" encoding="utf-8" standalone="no"?>
<!DOCTYPE svg PUBLIC "-//W3C//DTD SVG 1.1//EN"
  "http://www.w3.org/Graphics/SVG/1.1/DTD/svg11.dtd">
<!-- Created with matplotlib (https://matplotlib.org/) -->
<svg height="345.6pt" version="1.1" viewBox="0 0 460.8 345.6" width="460.8pt" xmlns="http://www.w3.org/2000/svg" xmlns:xlink="http://www.w3.org/1999/xlink">
 <defs>
  <style type="text/css">
*{stroke-linecap:butt;stroke-linejoin:round;}
  </style>
 </defs>
 <g id="figure_1">
  <g id="patch_1">
   <path d="M 0 345.6 
L 460.8 345.6 
L 460.8 0 
L 0 0 
z
" style="fill:#ffffff;"/>
  </g>
  <g id="axes_1">
   <g id="patch_2">
    <path d="M 57.6 307.584 
L 414.72 307.584 
L 414.72 41.472 
L 57.6 41.472 
z
" style="fill:#ffffff;"/>
   </g>
   <g id="matplotlib.axis_1">
    <g id="xtick_1">
     <g id="line2d_1">
      <defs>
       <path d="M 0 0 
L 0 3.5 
" id="m32b51b2664" style="stroke:#000000;stroke-width:0.8;"/>
      </defs>
      <g>
       <use style="stroke:#000000;stroke-width:0.8;" x="73.754319" xlink:href="#m32b51b2664" y="307.584"/>
      </g>
     </g>
     <g id="text_1">
      <text style="font-family:DejaVu Sans;font-size:10px;font-style:normal;font-weight:normal;text-anchor:middle;" transform="rotate(-0, 73.754319, 322.182437)" x="73.754319" y="322.182437">0.0</text>
     </g>
    </g>
    <g id="xtick_2">
     <g id="line2d_2">
      <g>
       <use style="stroke:#000000;stroke-width:0.8;" x="152.162196" xlink:href="#m32b51b2664" y="307.584"/>
      </g>
     </g>
     <g id="text_2">
      <text style="font-family:DejaVu Sans;font-size:10px;font-style:normal;font-weight:normal;text-anchor:middle;" transform="rotate(-0, 152.162196, 322.182437)" x="152.162196" y="322.182437">0.1</text>
     </g>
    </g>
    <g id="xtick_3">
     <g id="line2d_3">
      <g>
       <use style="stroke:#000000;stroke-width:0.8;" x="230.570073" xlink:href="#m32b51b2664" y="307.584"/>
      </g>
     </g>
     <g id="text_3">
      <text style="font-family:DejaVu Sans;font-size:10px;font-style:normal;font-weight:normal;text-anchor:middle;" transform="rotate(-0, 230.570073, 322.182437)" x="230.570073" y="322.182437">0.2</text>
     </g>
    </g>
    <g id="xtick_4">
     <g id="line2d_4">
      <g>
       <use style="stroke:#000000;stroke-width:0.8;" x="308.977949" xlink:href="#m32b51b2664" y="307.584"/>
      </g>
     </g>
     <g id="text_4">
      <text style="font-family:DejaVu Sans;font-size:10px;font-style:normal;font-weight:normal;text-anchor:middle;" transform="rotate(-0, 308.977949, 322.182437)" x="308.977949" y="322.182437">0.3</text>
     </g>
    </g>
    <g id="xtick_5">
     <g id="line2d_5">
      <g>
       <use style="stroke:#000000;stroke-width:0.8;" x="387.385826" xlink:href="#m32b51b2664" y="307.584"/>
      </g>
     </g>
     <g id="text_5">
      <text style="font-family:DejaVu Sans;font-size:10px;font-style:normal;font-weight:normal;text-anchor:middle;" transform="rotate(-0, 387.385826, 322.182437)" x="387.385826" y="322.182437">0.4</text>
     </g>
    </g>
    <g id="text_6">
     <text style="font-family:DejaVu Sans;font-size:10px;font-style:normal;font-weight:normal;text-anchor:middle;" transform="rotate(-0, 236.16, 335.860562)" x="236.16" y="335.860562">Probability</text>
    </g>
   </g>
   <g id="matplotlib.axis_2">
    <g id="ytick_1">
     <g id="line2d_6">
      <defs>
       <path d="M 0 0 
L -3.5 0 
" id="m8e740a5205" style="stroke:#000000;stroke-width:0.8;"/>
      </defs>
      <g>
       <use style="stroke:#000000;stroke-width:0.8;" x="57.6" xlink:href="#m8e740a5205" y="300.267809"/>
      </g>
     </g>
     <g id="text_7">
      <text style="font-family:DejaVu Sans;font-size:10px;font-style:normal;font-weight:normal;text-anchor:end;" transform="rotate(-0, 50.6, 304.067028)" x="50.6" y="304.067028">0</text>
     </g>
    </g>
    <g id="ytick_2">
     <g id="line2d_7">
      <g>
       <use style="stroke:#000000;stroke-width:0.8;" x="57.6" xlink:href="#m8e740a5205" y="249.407952"/>
      </g>
     </g>
     <g id="text_8">
      <text style="font-family:DejaVu Sans;font-size:10px;font-style:normal;font-weight:normal;text-anchor:end;" transform="rotate(-0, 50.6, 253.20717)" x="50.6" y="253.20717">100</text>
     </g>
    </g>
    <g id="ytick_3">
     <g id="line2d_8">
      <g>
       <use style="stroke:#000000;stroke-width:0.8;" x="57.6" xlink:href="#m8e740a5205" y="198.548094"/>
      </g>
     </g>
     <g id="text_9">
      <text style="font-family:DejaVu Sans;font-size:10px;font-style:normal;font-weight:normal;text-anchor:end;" transform="rotate(-0, 50.6, 202.347312)" x="50.6" y="202.347312">200</text>
     </g>
    </g>
    <g id="ytick_4">
     <g id="line2d_9">
      <g>
       <use style="stroke:#000000;stroke-width:0.8;" x="57.6" xlink:href="#m8e740a5205" y="147.688236"/>
      </g>
     </g>
     <g id="text_10">
      <text style="font-family:DejaVu Sans;font-size:10px;font-style:normal;font-weight:normal;text-anchor:end;" transform="rotate(-0, 50.6, 151.487455)" x="50.6" y="151.487455">300</text>
     </g>
    </g>
    <g id="ytick_5">
     <g id="line2d_10">
      <g>
       <use style="stroke:#000000;stroke-width:0.8;" x="57.6" xlink:href="#m8e740a5205" y="96.828378"/>
      </g>
     </g>
     <g id="text_11">
      <text style="font-family:DejaVu Sans;font-size:10px;font-style:normal;font-weight:normal;text-anchor:end;" transform="rotate(-0, 50.6, 100.627597)" x="50.6" y="100.627597">400</text>
     </g>
    </g>
    <g id="ytick_6">
     <g id="line2d_11">
      <g>
       <use style="stroke:#000000;stroke-width:0.8;" x="57.6" xlink:href="#m8e740a5205" y="45.96852"/>
      </g>
     </g>
     <g id="text_12">
      <text style="font-family:DejaVu Sans;font-size:10px;font-style:normal;font-weight:normal;text-anchor:end;" transform="rotate(-0, 50.6, 49.767739)" x="50.6" y="49.767739">500</text>
     </g>
    </g>
    <g id="text_13">
     <text style="font-family:DejaVu Sans;font-size:10px;font-style:normal;font-weight:normal;text-anchor:middle;" transform="rotate(-90, 25.432812, 174.528)" x="25.432812" y="174.528">Average Bits Consumed Per Call</text>
    </g>
   </g>
   <g id="line2d_12">
    <path clip-path="url(#pa4102d6061)" d="M 73.832727 279.296256 
L 81.751131 281.400837 
L 89.669534 278.690006 
L 97.587938 279.491557 
L 105.506341 279.293204 
L 113.424745 283.710891 
L 121.343149 281.023456 
L 129.261552 282.464825 
L 137.179956 284.148286 
L 145.098359 282.366157 
L 153.016763 281.318444 
L 160.935166 283.301978 
L 168.85357 281.983691 
L 176.771973 284.471755 
L 184.690377 278.323815 
L 192.60878 281.567657 
L 200.527184 283.226705 
L 208.445588 282.819827 
L 216.363991 279.238275 
L 224.282395 276.366728 
L 232.200798 280.839344 
L 240.119202 277.038078 
L 248.037605 275.321049 
L 255.956009 275.33529 
L 263.874412 278.204803 
L 271.792816 278.077653 
L 279.71122 271.367204 
L 287.629623 275.308843 
L 295.548027 274.761591 
L 303.46643 266.378869 
L 311.384834 277.279154 
L 319.303237 273.956988 
L 327.221641 275.229501 
L 335.140044 262.298891 
L 343.058448 259.897289 
L 350.976851 264.935466 
L 358.895255 260.718167 
L 366.813659 262.052729 
L 374.732062 262.429092 
L 382.650466 254.26812 
" style="fill:none;stroke:#1f77b4;stroke-linecap:square;stroke-width:1.5;"/>
   </g>
   <g id="line2d_13">
    <path clip-path="url(#pa4102d6061)" d="M 73.832727 270.837244 
L 81.751131 269.465045 
L 89.669534 271.188177 
L 97.587938 270.324577 
L 105.506341 270.980669 
L 113.424745 266.190687 
L 121.343149 265.284365 
L 129.261552 267.034961 
L 137.179956 265.361672 
L 145.098359 266.133724 
L 153.016763 264.632341 
L 160.935166 265.272158 
L 168.85357 262.813593 
L 176.771973 260.416059 
L 184.690377 260.489297 
L 192.60878 258.393871 
L 200.527184 258.43049 
L 208.445588 261.598042 
L 216.363991 255.505031 
L 224.282395 253.526583 
L 232.200798 254.952693 
L 240.119202 251.991632 
L 248.037605 251.555255 
L 255.956009 247.846554 
L 263.874412 250.807615 
L 271.792816 246.725603 
L 279.71122 248.092716 
L 287.629623 241.060832 
L 295.548027 238.271677 
L 303.46643 241.991567 
L 311.384834 235.133624 
L 319.303237 212.575242 
L 327.221641 225.99309 
L 335.140044 219.934664 
L 343.058448 217.690727 
L 350.976851 220.716889 
M 366.813659 191.587414 
M 382.650466 181.763323 
" style="fill:none;stroke:#ff7f0e;stroke-linecap:square;stroke-width:1.5;"/>
   </g>
   <g id="line2d_14">
    <path clip-path="url(#pa4102d6061)" d="M 73.832727 295.452398 
L 81.751131 295.307956 
L 89.669534 295.488 
L 97.587938 293.553291 
L 105.506341 290.939094 
L 113.424745 291.055055 
L 121.343149 290.442702 
L 129.261552 288.822307 
L 137.179956 287.884451 
L 145.098359 287.102227 
L 153.016763 285.88159 
L 160.935166 284.084203 
L 168.85357 282.144408 
L 176.771973 278.189545 
L 184.690377 273.195107 
L 192.60878 278.446896 
L 200.527184 273.627416 
L 208.445588 275.946625 
L 216.363991 265.778723 
L 224.282395 265.873322 
L 232.200798 263.102477 
L 240.119202 261.917442 
L 248.037605 248.2219 
L 255.956009 247.66651 
L 263.874412 237.397905 
" style="fill:none;stroke:#2ca02c;stroke-linecap:square;stroke-width:1.5;"/>
   </g>
   <g id="line2d_15">
    <path clip-path="url(#pa4102d6061)" d="M 73.832727 284.4626 
L 81.751131 283.727166 
L 89.669534 284.293745 
L 97.587938 284.355794 
L 105.506341 284.258143 
L 113.424745 283.615275 
L 121.343149 279.102988 
L 129.261552 279.69398 
L 137.179956 279.228103 
L 145.098359 280.028638 
L 153.016763 280.193424 
M 168.85357 279.224035 
L 176.771973 278.685937 
L 184.690377 279.186398 
L 192.60878 274.390314 
L 200.527184 272.612253 
L 208.445588 274.653768 
L 216.363991 272.54817 
L 224.282395 272.313197 
L 232.200798 274.979271 
L 240.119202 269.576937 
L 248.037605 269.685777 
L 255.956009 266.381921 
L 263.874412 270.561584 
L 271.792816 260.82599 
L 279.71122 267.582213 
L 287.629623 261.593974 
L 295.548027 262.095452 
L 303.46643 258.667497 
M 319.303237 248.280897 
L 327.221641 247.420348 
L 335.140044 250.802529 
L 343.058448 234.406328 
M 366.813659 228.450639 
M 398.487273 189.092229 
" style="fill:none;stroke:#d62728;stroke-linecap:square;stroke-width:1.5;"/>
   </g>
   <g id="line2d_16">
    <path clip-path="url(#pa4102d6061)" d="M 81.751131 53.568 
L 89.669534 148.064599 
L 97.587938 185.085489 
L 105.506341 201.495931 
L 113.424745 209.891876 
L 121.343149 214.480453 
L 129.261552 220.519552 
L 137.179956 224.570031 
L 145.098359 224.80297 
L 153.016763 227.038769 
L 160.935166 229.79639 
L 168.85357 231.764667 
L 176.771973 232.027104 
L 184.690377 235.288238 
L 192.60878 234.098117 
L 200.527184 237.276858 
L 208.445588 237.480298 
L 216.363991 236.971699 
L 224.282395 238.382552 
L 232.200798 239.271582 
L 240.119202 239.055936 
L 248.037605 239.162742 
L 255.956009 238.886064 
L 263.874412 238.205559 
" style="fill:none;stroke:#9467bd;stroke-linecap:square;stroke-width:1.5;"/>
   </g>
   <g id="patch_3">
    <path d="M 57.6 307.584 
L 57.6 41.472 
" style="fill:none;stroke:#000000;stroke-linecap:square;stroke-linejoin:miter;stroke-width:0.8;"/>
   </g>
   <g id="patch_4">
    <path d="M 414.72 307.584 
L 414.72 41.472 
" style="fill:none;stroke:#000000;stroke-linecap:square;stroke-linejoin:miter;stroke-width:0.8;"/>
   </g>
   <g id="patch_5">
    <path d="M 57.6 307.584 
L 414.72 307.584 
" style="fill:none;stroke:#000000;stroke-linecap:square;stroke-linejoin:miter;stroke-width:0.8;"/>
   </g>
   <g id="patch_6">
    <path d="M 57.6 41.472 
L 414.72 41.472 
" style="fill:none;stroke:#000000;stroke-linecap:square;stroke-linejoin:miter;stroke-width:0.8;"/>
   </g>
   <g id="text_14">
    <text style="font-family:DejaVu Sans;font-size:12px;font-style:normal;font-weight:normal;text-anchor:middle;" transform="rotate(-0, 236.16, 35.472)" x="236.16" y="35.472">Avg. Bits Consumed</text>
   </g>
   <g id="legend_1">
    <g id="patch_7">
     <path d="M 233.6325 122.862625 
L 407.72 122.862625 
Q 409.72 122.862625 409.72 120.862625 
L 409.72 48.472 
Q 409.72 46.472 407.72 46.472 
L 233.6325 46.472 
Q 231.6325 46.472 231.6325 48.472 
L 231.6325 120.862625 
Q 231.6325 122.862625 233.6325 122.862625 
z
" style="fill:#ffffff;opacity:0.8;stroke:#cccccc;stroke-linejoin:miter;"/>
    </g>
    <g id="line2d_17">
     <path d="M 235.6325 54.570438 
L 255.6325 54.570438 
" style="fill:none;stroke:#1f77b4;stroke-linecap:square;stroke-width:1.5;"/>
    </g>
    <g id="line2d_18"/>
    <g id="text_15">
     <text style="font-family:DejaVu Sans;font-size:10px;font-style:normal;font-weight:normal;text-anchor:start;" transform="rotate(-0, 263.6325, 58.070438)" x="263.6325" y="58.070438">2014 Lin. x*2.0</text>
    </g>
    <g id="line2d_19">
     <path d="M 235.6325 69.248563 
L 255.6325 69.248563 
" style="fill:none;stroke:#ff7f0e;stroke-linecap:square;stroke-width:1.5;"/>
    </g>
    <g id="line2d_20"/>
    <g id="text_16">
     <text style="font-family:DejaVu Sans;font-size:10px;font-style:normal;font-weight:normal;text-anchor:start;" transform="rotate(-0, 263.6325, 72.748563)" x="263.6325" y="72.748563">2016 Lin. x*2.0</text>
    </g>
    <g id="line2d_21">
     <path d="M 235.6325 83.926688 
L 255.6325 83.926688 
" style="fill:none;stroke:#2ca02c;stroke-linecap:square;stroke-width:1.5;"/>
    </g>
    <g id="line2d_22"/>
    <g id="text_17">
     <text style="font-family:DejaVu Sans;font-size:10px;font-style:normal;font-weight:normal;text-anchor:start;" transform="rotate(-0, 263.6325, 87.426688)" x="263.6325" y="87.426688">Low-Mean Lin. x*2.0</text>
    </g>
    <g id="line2d_23">
     <path d="M 235.6325 98.604813 
L 255.6325 98.604813 
" style="fill:none;stroke:#d62728;stroke-linecap:square;stroke-width:1.5;"/>
    </g>
    <g id="line2d_24"/>
    <g id="text_18">
     <text style="font-family:DejaVu Sans;font-size:10px;font-style:normal;font-weight:normal;text-anchor:start;" transform="rotate(-0, 263.6325, 102.104813)" x="263.6325" y="102.104813">2019x*2.0</text>
    </g>
    <g id="line2d_25">
     <path d="M 235.6325 113.282938 
L 255.6325 113.282938 
" style="fill:none;stroke:#9467bd;stroke-linecap:square;stroke-width:1.5;"/>
    </g>
    <g id="line2d_26"/>
    <g id="text_19">
     <text style="font-family:DejaVu Sans;font-size:10px;font-style:normal;font-weight:normal;text-anchor:start;" transform="rotate(-0, 263.6325, 116.782938)" x="263.6325" y="116.782938">Low-Mean M=0.49999 x*2.0</text>
    </g>
   </g>
  </g>
 </g>
 <defs>
  <clipPath id="pa4102d6061">
   <rect height="266.112" width="357.12" x="57.6" y="41.472"/>
  </clipPath>
 </defs>
</svg>

<svg height="460.8" viewBox="0 0 460.8 345.6" width="614.4" xmlns="http://www.w3.org/2000/svg" xmlns:xlink="http://www.w3.org/1999/xlink"><defs><style>*{stroke-linecap:butt;stroke-linejoin:round}</style></defs><g id="figure_1"><path d="M0 345.6h460.8V0H0z" fill="#fff" id="patch_1"/><g id="axes_1"><path d="M57.6 307.584h357.12V41.472H57.6z" fill="#fff" id="patch_2"/><g id="matplotlib.axis_1"><g id="xtick_1"><g id="line2d_1"><defs><path d="M0 0v3.5" id="m32b51b2664" stroke="#000" stroke-width=".8"/></defs><use x="73.754" xlink:href="#m32b51b2664" y="307.584" stroke="#000" stroke-width=".8"/></g><text x="73.754" y="322.182" font-family="DejaVu Sans" font-size="10" font-weight="400" text-anchor="middle" id="text_1">0.0</text></g><g id="xtick_2"><use x="152.162" xlink:href="#m32b51b2664" y="307.584" stroke="#000" stroke-width=".8" id="line2d_2"/><text x="152.162" y="322.182" font-family="DejaVu Sans" font-size="10" font-weight="400" text-anchor="middle" id="text_2">0.1</text></g><g id="xtick_3"><use x="230.57" xlink:href="#m32b51b2664" y="307.584" stroke="#000" stroke-width=".8" id="line2d_3"/><text x="230.57" y="322.182" font-family="DejaVu Sans" font-size="10" font-weight="400" text-anchor="middle" id="text_3">0.2</text></g><g id="xtick_4"><use x="308.978" xlink:href="#m32b51b2664" y="307.584" stroke="#000" stroke-width=".8" id="line2d_4"/><text x="308.978" y="322.182" font-family="DejaVu Sans" font-size="10" font-weight="400" text-anchor="middle" id="text_4">0.3</text></g><g id="xtick_5"><use x="387.386" xlink:href="#m32b51b2664" y="307.584" stroke="#000" stroke-width=".8" id="line2d_5"/><text x="387.386" y="322.182" font-family="DejaVu Sans" font-size="10" font-weight="400" text-anchor="middle" id="text_5">0.4</text></g><text x="236.16" y="335.861" font-family="DejaVu Sans" font-size="10" font-weight="400" text-anchor="middle" id="text_6">Probability</text></g><g id="matplotlib.axis_2"><g id="ytick_1"><g id="line2d_6"><defs><path d="M0 0h-3.5" id="m8e740a5205" stroke="#000" stroke-width=".8"/></defs><use x="57.6" xlink:href="#m8e740a5205" y="300.268" stroke="#000" stroke-width=".8"/></g><text x="50.6" y="304.067" font-family="DejaVu Sans" font-size="10" font-weight="400" text-anchor="end" id="text_7">0</text></g><g id="ytick_2"><use x="57.6" xlink:href="#m8e740a5205" y="249.408" stroke="#000" stroke-width=".8" id="line2d_7"/><text x="50.6" y="253.207" font-family="DejaVu Sans" font-size="10" font-weight="400" text-anchor="end" id="text_8">100</text></g><g id="ytick_3"><use x="57.6" xlink:href="#m8e740a5205" y="198.548" stroke="#000" stroke-width=".8" id="line2d_8"/><text x="50.6" y="202.347" font-family="DejaVu Sans" font-size="10" font-weight="400" text-anchor="end" id="text_9">200</text></g><g id="ytick_4"><use x="57.6" xlink:href="#m8e740a5205" y="147.688" stroke="#000" stroke-width=".8" id="line2d_9"/><text x="50.6" y="151.487" font-family="DejaVu Sans" font-size="10" font-weight="400" text-anchor="end" id="text_10">300</text></g><g id="ytick_5"><use x="57.6" xlink:href="#m8e740a5205" y="96.828" stroke="#000" stroke-width=".8" id="line2d_10"/><text x="50.6" y="100.628" font-family="DejaVu Sans" font-size="10" font-weight="400" text-anchor="end" id="text_11">400</text></g><g id="ytick_6"><use x="57.6" xlink:href="#m8e740a5205" y="45.969" stroke="#000" stroke-width=".8" id="line2d_11"/><text x="50.6" y="49.768" font-family="DejaVu Sans" font-size="10" font-weight="400" text-anchor="end" id="text_12">500</text></g><text transform="rotate(-90 25.433 174.528)" x="25.433" y="174.528" font-family="DejaVu Sans" font-size="10" font-weight="400" text-anchor="middle" id="text_13">Average Bits Consumed Per Call</text></g><path clip-path="url(#pa4102d6061)" d="M73.833 279.296l7.918 2.105 7.919-2.711 7.918.802 7.918-.199 7.919 4.418 7.918-2.688 7.919 1.442 7.918 1.683 7.918-1.782 7.919-1.048 7.918 1.984 7.919-1.318 7.918 2.488 7.918-6.148 7.919 3.244 7.918 1.659 7.919-.407 7.918-3.582 7.918-2.871 7.919 4.472 7.918-3.8 7.919-1.718 7.918.014 7.918 2.87 7.919-.127 7.918-6.71 7.919 3.94 7.918-.546 7.918-8.383 7.919 10.9 7.918-3.322 7.919 1.273 7.918-12.931 7.918-2.402 7.919 5.038 7.918-4.217 7.919 1.335 7.918.376 7.918-8.16" fill="none" stroke="#1f77b4" stroke-linecap="square" stroke-width="1.5" id="line2d_12"/><path clip-path="url(#pa4102d6061)" d="M73.833 270.837l7.918-1.372 7.919 1.723 7.918-.863 7.918.656 7.919-4.79 7.918-.907 7.919 1.751 7.918-1.673 7.918.772 7.919-1.502 7.918.64 7.919-2.458 7.918-2.398 7.918.073 7.919-2.095 7.918.036 7.919 3.168 7.918-6.093 7.918-1.978 7.919 1.426 7.918-2.961 7.919-.437 7.918-3.708 7.918 2.96 7.919-4.081 7.918 1.367 7.919-7.032 7.918-2.79 7.918 3.72 7.919-6.857 7.918-22.559 7.919 13.418 7.918-6.058 7.918-2.244 7.919 3.026M382.65 181.763" fill="none" stroke="#ff7f0e" stroke-linecap="square" stroke-width="1.5" id="line2d_13"/><path clip-path="url(#pa4102d6061)" d="M73.833 295.452l7.918-.144 7.919.18 7.918-1.935 7.918-2.614 7.919.116 7.918-.612 7.919-1.62 7.918-.939 7.918-.782 7.919-1.22 7.918-1.798 7.919-1.94 7.918-3.954 7.918-4.995 7.919 5.252 7.918-4.82 7.919 2.32 7.918-10.168 7.918.094 7.919-2.77 7.918-1.186 7.919-13.695 7.918-.555 7.918-10.27" fill="none" stroke="#2ca02c" stroke-linecap="square" stroke-width="1.5" id="line2d_14"/><path clip-path="url(#pa4102d6061)" d="M73.833 284.463l7.918-.736 7.919.567 7.918.062 7.918-.098 7.919-.643 7.918-4.512 7.919.591 7.918-.466 7.918.8 7.919.165m15.837-.969l7.918-.538 7.918.5 7.919-4.796 7.918-1.778 7.919 2.042 7.918-2.106 7.918-.235 7.919 2.666 7.918-5.402 7.919.109 7.918-3.304 7.918 4.18 7.919-9.736 7.918 6.756 7.919-5.988 7.918.501 7.918-3.428m15.837-10.386l7.919-.86 7.918 3.382 7.918-16.397m55.429-45.314" fill="none" stroke="#d62728" stroke-linecap="square" stroke-width="1.5" id="line2d_15"/><path clip-path="url(#pa4102d6061)" d="M81.751 53.568l7.919 94.497 7.918 37.02 7.918 16.41 7.919 8.397 7.918 4.588 7.919 6.04 7.918 4.05 7.918.233 7.919 2.236 7.918 2.757 7.919 1.969 7.918.262 7.918 3.261 7.919-1.19 7.918 3.179 7.919.203 7.918-.508 7.918 1.41 7.919.89 7.918-.216 7.919.107 7.918-.277 7.918-.68" fill="none" stroke="#9467bd" stroke-linecap="square" stroke-width="1.5" id="line2d_16"/><path d="M57.6 307.584V41.472" fill="none" stroke="#000" stroke-linecap="square" stroke-width=".8" id="patch_3"/><path d="M414.72 307.584V41.472" fill="none" stroke="#000" stroke-linecap="square" stroke-width=".8" id="patch_4"/><path d="M57.6 307.584h357.12" fill="none" stroke="#000" stroke-linecap="square" stroke-width=".8" id="patch_5"/><path d="M57.6 41.472h357.12" fill="none" stroke="#000" stroke-linecap="square" stroke-width=".8" id="patch_6"/><text x="236.16" y="35.472" font-family="DejaVu Sans" font-size="12" font-weight="400" text-anchor="middle" id="text_14">Avg. Bits Consumed</text><g id="legend_1"><path d="M233.632 122.863H407.72q2 0 2-2V48.472q0-2-2-2H233.632q-2 0-2 2v72.39q0 2 2 2z" fill="#fff" opacity=".8" stroke="#ccc" id="patch_7"/><path d="M235.632 54.57h20" fill="none" stroke="#1f77b4" stroke-linecap="square" stroke-width="1.5" id="line2d_17"/><text x="263.632" y="58.07" font-family="DejaVu Sans" font-size="10" font-weight="400" id="text_15">2014 Lin. x*2.0</text><path d="M235.632 69.249h20" fill="none" stroke="#ff7f0e" stroke-linecap="square" stroke-width="1.5" id="line2d_19"/><text x="263.632" y="72.749" font-family="DejaVu Sans" font-size="10" font-weight="400" id="text_16">2016 Lin. x*2.0</text><path d="M235.632 83.927h20" fill="none" stroke="#2ca02c" stroke-linecap="square" stroke-width="1.5" id="line2d_21"/><text x="263.632" y="87.427" font-family="DejaVu Sans" font-size="10" font-weight="400" id="text_17">Low-Mean Lin. x*2.0</text><path d="M235.632 98.605h20" fill="none" stroke="#d62728" stroke-linecap="square" stroke-width="1.5" id="line2d_23"/><text x="263.632" y="102.105" font-family="DejaVu Sans" font-size="10" font-weight="400" id="text_18">2019x*2.0</text><path d="M235.632 113.283h20" fill="none" stroke="#9467bd" stroke-linecap="square" stroke-width="1.5" id="line2d_25"/><text x="263.632" y="116.783" font-family="DejaVu Sans" font-size="10" font-weight="400" id="text_19">Low-Mean M=0.49999 x*2.0</text></g></g></g><defs><clipPath id="pa4102d6061"><path d="M57.6 41.472h357.12v266.112H57.6z"/></clipPath></defs></svg>
